X:59
T:Halting March
M:4/4
L:1/8
K:A aeolian
E2 | "Am" A2 B/c/d e e2 d | e>d ef ec A2 | "G" G2 Bc d d2 e | dBGB d2 cB |
"Am" A2 B/c/d e e2 d | e>d ef ec A2 | a g2 e "G" d c2 B |1 "Am" A>B "(G)" AG "(Am)" A2 E2 :|
:|2 "Am" A>B "(G)" AG "(Am)" A4 |: "Am" a a2 g e d2 e | "G" g>a ge dB G2 | "Am" a a2 g e d2 e |
"G" g>a ge "(Em)" g a/g/e/g/ | "Am" a a2 g e d2 e | "G" gage "(Em)" dB G2 | "Am" A>B cd e2 dB |
A>B cd e2 e2 | a a2 g e d2 e | "G" g>a ge dB G2 | "Am" A>B cd "G" e2 dB | "Am" A>B "(G)" AG "(Am)" A4 |]

